X:1
T:Title
%%score { ( 1 3 ) | ( 2 4 ) }
L:1/8
Q:1/4=100
M:4/4
K:Eb
V:1 treble nm="Grand Piano"
V:3 treble 
V:2 bass 
V:4 bass 
V:1
 [CE]>[CE] [CE]>[CE] [CE][CE] [CE]>[CE] | F2 F2 F4 | [CE]>[CE] [CE]>[CE] [EA][EA] [EA]>[EA] | %3
w: Chas.~F.~Weigele * * * * * * *|||
 B2 B2 B4 | [Ec]>[Ec] [Ec]>[Ec] [Ec]>[Ec] [Ec]>[Ec] | [F_d]2 [Fd]2 [A=d]4 | %6
w: |||
 [Ae]>[Ae] [Ae]>[Ae] [Ae]2 c2 | c>c cc B4 | [Ec]>[Ec] [Ec][Ec] c-[Ac]c-[_Gc] | %9
w: |||
 [F_d]>[Fd] [Fd][Fd] [Fd]4 | [Ec]>[Ec] [Ec][Ec] [Ae]2 [Ec]2 | z4 B4 | %12
w: |||
 [CE]>[CE] [CE]>[CE] [CEA]2 [A,CE]2 | A>A AA c4 | %14
w: ||
 [FB]>[FB] [Af][Af] [Ae]2 [Ac]2[Q:1/4=98][Q:1/4=97][Q:1/4=95][Q:1/4=94][Q:1/4=92][Q:1/4=91][Q:1/4=89][Q:1/4=88][Q:1/4=86][Q:1/4=84][Q:1/4=83][Q:1/4=81][Q:1/4=80][Q:1/4=78][Q:1/4=77] | %15
w: |
 AGFG [CEA]4 |] %16
w: |
V:2
 [A,,A,]>[A,,A,] [A,,A,]>[A,,A,] [A,,A,][A,,A,] [A,,A,]>[A,,A,] | [_D,A,_D]2 [D,A,D]2 [D,A,D]4 | %2
 [A,,A,]>[A,,A,] [A,,A,]>[A,,A,] [C,A,][C,A,] [C,A,]>[C,A,] | [E,G,E]2 [E,G,E]2 [E,G,E]4 | %4
 [A,,A,]>[A,,A,] [A,,A,]>[A,,A,] [A,,A,]>[A,,A,] [A,,A,]>[A,,A,] | [_D,A,]2 [D,A,]2 [F,=B,]4 | %6
 [E,C]>[E,C] [E,C]>[E,C] [E,C]2 [E,A,E]2 | [E,A,E]>[E,A,E] [E,A,E][E,A,E] [E,G,E]4 | %8
 [A,,A,]>[A,,A,] [A,,A,][A,,A,] [A,,A,]2 [A,,A,]2 | [_D,A,]>[D,A,] [D,A,][D,A,] [D,A,]4 | %10
 [A,,A,]>[A,,A,] [A,,A,][A,,A,] [A,,C]2 [A,,A,]2 | z4 E2 z2 | %12
 [A,,A,]>[A,,A,] [A,,A,]>[A,,A,] A,,2 A,,2 | [A,CE]>[A,CE] [A,CE][A,CE] [A,EA]4 | %14
 [_D,_D]>[D,D] [=D,=B,][D,B,] [E,C]2 [E,E]2 | [E,_DE][E,DE][E,DE][E,DE] A,,4 |] %16
V:3
 x8 | x8 | x8 | x8 | x8 | x8 | x8 | x8 | z4 .E2 .G2 | x8 | x8 | [Ec]>[EA] [Dc][DB] z2 _D2 | x8 | %13
 x8 | x8 | x8 |] %16
V:4
 x8 | x8 | x8 | x8 | x8 | x8 | x8 | x8 | x8 | x8 | x8 | [A,,A,]>[C,A,] [B,,A,][B,,A,] [E,G,]4 | %12
 x8 | x8 | x8 | x8 |] %16

